images/ic_red_cross.svg

<svg width="20" height="20" viewBox="0 0 20 20" fill="none" xmlns="http://www.w3.org/2000/svg">
<g clip-path="url(#clip0)">
<path d="M9.17969 15.1562V13.2031H7.22656C6.79504 13.2031 6.44531 12.8534 6.44531 12.4219C6.44531 11.9904 6.79504 11.6406 7.22656 11.6406H9.17969V9.6875C9.17969 9.25598 9.52942 8.90625 9.96094 8.90625C10.3925 8.90625 10.7422 9.25598 10.7422 9.6875V11.6406H12.6953C13.1268 11.6406 13.4766 11.9904 13.4766 12.4219C13.4766 12.8534 13.1268 13.2031 12.6953 13.2031H10.7422V15.1562C10.7422 15.5878 10.3925 15.9375 9.96094 15.9375C9.52942 15.9375 9.17969 15.5878 9.17969 15.1562ZM14.1052 4.57275C12.3625 2.21054 10.6485 0.332642 10.5763 0.253754C10.4283 0.0920105 10.2191 0 10 0C9.78088 0 9.57169 0.0920105 9.42368 0.253754C9.3515 0.332642 7.63748 2.21069 5.89478 4.57275C3.48663 7.83691 2.26562 10.347 2.26562 12.0335V12.2472C2.26562 16.5221 5.73517 20 10 20C11.3249 20 12.6326 19.6582 13.7816 19.0115C14.1577 18.7999 14.2909 18.3235 14.0793 17.9475C13.8676 17.5716 13.3914 17.4382 13.0153 17.6498C12.0998 18.1651 11.0571 18.4375 10 18.4375C6.59683 18.4375 3.82812 15.6606 3.82812 12.247V12.0335C3.82812 10.7277 5.0058 8.41125 7.14432 5.51102C8.24188 4.02237 9.35074 2.7066 10.0002 1.95953C10.6474 2.70432 11.7516 4.01443 12.8479 5.50049C14.9913 8.40576 16.1719 10.726 16.1719 12.0335V12.2472C16.1719 13.257 15.9373 14.2197 15.4749 15.108C15.2756 15.4907 15.4243 15.9625 15.807 16.1618C16.1896 16.3609 16.6615 16.2123 16.8608 15.8296C17.4323 14.7318 17.7344 13.493 17.7344 12.247V12.0335C17.7344 10.347 16.5134 7.83691 14.1052 4.57275Z" fill="#3D3D3D"/>
</g>
<defs>
<clipPath id="clip0">
<rect width="20" height="20" fill="white"/>
</clipPath>
</defs>
</svg>

<svg xmlns="http://www.w3.org/2000/svg" fill="none" viewBox="0 0 20 20"><g clip-path="url(#A)"><path d="M9.18 15.156v-1.953H7.227a.78.78 0 1 1 0-1.562H9.18V9.687a.78.78 0 0 1 1.563 0v1.953h1.953a.78.78 0 1 1 0 1.563h-1.953v1.953a.78.78 0 1 1-1.563 0zm4.926-10.583l-3.53-4.32A.78.78 0 0 0 10 0a.78.78 0 0 0-.576.254c-.072.08-1.786 1.957-3.53 4.32-2.408 3.264-3.63 5.774-3.63 7.46v.214C2.266 16.522 5.735 20 10 20c1.325 0 2.633-.342 3.782-.988a.78.78 0 1 0-.766-1.362 6.16 6.16 0 0 1-3.015.788 6.19 6.19 0 0 1-6.172-6.19v-.213c0-1.306 1.178-3.622 3.316-6.522C8.242 4.023 9.35 2.707 10 1.96a58.87 58.87 0 0 1 2.848 3.541c2.143 2.905 3.324 5.226 3.324 6.533v.214c0 1-.235 1.973-.697 2.86a.78.78 0 1 0 1.386.722 7.79 7.79 0 0 0 .874-3.583v-.213c0-1.686-1.22-4.197-3.63-7.46z" fill="#3d3d3d"/></g><defs><clipPath id="A"><path fill="#fff" d="M0 0h20v20H0z"/></clipPath></defs></svg>
